app/img/info/button-icon-plus.svg

<svg width="23" height="24" viewBox="0 0 23 24" fill="none" xmlns="http://www.w3.org/2000/svg">
<path d="M19.6317 3.86826C17.4597 1.69622 14.5717 0.5 11.5 0.5C8.42829 0.5 5.54031 1.69622 3.36826 3.86826C1.19622 6.04031 0 8.92829 0 12C0 15.0717 1.19622 17.9597 3.36826 20.1317C5.54031 22.3038 8.42829 23.5 11.5 23.5C14.5717 23.5 17.4597 22.3038 19.6317 20.1317C21.8038 17.9597 23 15.0717 23 12C23 8.92829 21.8038 6.04031 19.6317 3.86826ZM11.5 21.7031C6.14973 21.7031 1.79688 17.3503 1.79688 12C1.79688 6.64973 6.14973 2.29688 11.5 2.29688C16.8503 2.29688 21.2031 6.64973 21.2031 12C21.2031 17.3503 16.8503 21.7031 11.5 21.7031ZM12.3984 11.1007H16.4414V12.8976H12.3984V16.9405H10.6016V12.8976H6.55859V11.1007H10.6016V7.05772H12.3984V11.1007Z" fill="#25B072"/>
</svg>

<svg width="23" height="24" fill="none" xmlns="http://www.w3.org/2000/svg"><path d="M19.632 3.868A11.425 11.425 0 0 0 11.5.5C8.428.5 5.54 1.696 3.368 3.868A11.425 11.425 0 0 0 0 12c0 3.072 1.196 5.96 3.368 8.132A11.425 11.425 0 0 0 11.5 23.5c3.072 0 5.96-1.196 8.132-3.368A11.425 11.425 0 0 0 23 12c0-3.072-1.196-5.96-3.368-8.132ZM11.5 21.703c-5.35 0-9.703-4.353-9.703-9.703S6.15 2.297 11.5 2.297 21.203 6.65 21.203 12s-4.353 9.703-9.703 9.703Zm.898-10.602h4.043v1.797h-4.043v4.043h-1.796v-4.043H6.559V11.1h4.043V7.058h1.796V11.1Z" fill="#25B072"/></svg>
